X: 01062
T: KELLY'S GREEN
C: Bob McQuillen Apr'75
B: Bob's Note Book 1 #62
%R: jig
Z: 2019 John Chambers <jc:trillian.mit.edu>
M: 6/8
L: 1/8
K: D
A \
| dcd efe | dcd AFA | dcd efg | fed e2A |\
| dcd AFA | dcd ede | fga gec | edd d2 :|
|: d \
| cee Aee | dff Aff | gab agf | efg a2d |\
| cee Aee | dff Aff | gab agf | edc d2 :|
%%begintext align
%% For Linda Kelly
%% of Cazenovia College.
%%endtext

%%sep 1 1 500

%%sep 1 1 500

